!!!COM:	Bach, Johann Sebastian
!!!CDT:	1685/02/21/-1750/07/28/
!!!OTL@@DE:	Herzlich lieb hab ich dich, o Herr
!!!SCT:	BWV 245/40
!!!PC#:	107
!!!AGN:	chorale
**kern	**kern	**kern	**kern
*ICvox	*ICvox	*ICvox	*ICvox
*Ibass	*Itenor	*Ialto	*Isoprn
*I"Bass	*I"Tenor	*I"Alto	*I"Soprano
*>[A,A,B]	*>[A,A,B]	*>[A,A,B]	*>[A,A,B]
*>norep[A,B]	*>norep[A,B]	*>norep[A,B]	*>norep[A,B]
*>A	*>A	*>A	*>A
*clefF4	*clefGv2	*clefG2	*clefG2
*k[b-e-a-]	*k[b-e-a-]	*k[b-e-a-]	*k[b-e-a-]
*E-:	*E-:	*E-:	*E-:
*M4/4	*M4/4	*M4/4	*M4/4
*met(c)	*met(c)	*met(c)	*met(c)
*MM100	*MM100	*MM100	*MM100
4E-	4g	4b-	4ee-
=1	=1	=1	=1
4B-	4f	4b-	4dd
4c	4e-	4g	4cc
4G	4d	4g	4b-
4B-	4d-	8fL	8a-L
.	.	8e-J	8gJ
=2	=2	=2	=2
4A-	8cL	4e-	4cc
.	8B-	.	.
4AA-	8c	4a-	4cc
.	8dnXJ	.	.
4E-;	4e-;	4g;	4b-;
4C	8GL	4g	4ee-
.	8A-J	.	.
=3	=3	=3	=3
4G	4B-	8gL	4dd
.	.	8fJ	.
4A-	8cL	8e-L	4cc
.	8dJ	8fJ	.
8E-L	4e-	8gL	4b-
8D	.	8fJ	.
8C	8A-L	8e-L	8a-L
8BB-J	8B-J	8dJ	8gJ
=4	=4	=4	=4
4AA-	8cL	8e-L	4cc
.	8e-J	8fJ	.
4A-	8dL	4f	4cc
.	8cJ	.	.
4G;	4d;	4g;	4b-;
4E-	4e-	4g	4b-
=5	=5	=5	=5
4A-	8e-L	8a-L	4cc
.	8a-J	8ccJ	.
4B-	8gL	8b-L	4dd
.	8fJ	8a-J	.
8cL	8e-L	8gL	8ee-L
8DJ	8B-J	8fJ	8ffJ
4E-	4d-	4e-	4gg
=6	=6	=6	=6
4AA-	2c	2f	4ff
4AA	.	.	2ee-
2BB-	2B-	4g	.
.	.	4a-	4ddnX
=7	=7	=7	=7
2.E-;	2.B-;	2.g;	2.ee-;
=:|!	=:|!	=:|!	=:|!
*>B	*>B	*>B	*>B
4E-	4B-	4g	4ee-
=8	=8	=8	=8
8A-L	4c	4a-	4ee-
8GJ	.	.	.
4F	4c	4a-	4ff
4C	8cL	4.g	8ee-L
.	8dJ	.	8ddJ
8cL	8e-L	.	8ccL
8B-J	8dJ	8g	8ddJ
=9	=9	=9	=9
8AL	4c	8fL	4ee-
8GJ	.	8gJ	.
4F	4f	4a	4ee-
4B-;	4f;	4b-;	4dd;
8B-L	4f	4b-	4dd
8A-J	.	.	.
=10	=10	=10	=10
8GL	4B-	4b-	4ee-
8F	.	.	.
8E-	4B-	4a-	4ff
8DJ	.	.	.
4E-	4B-	4g	8ee-L
.	.	.	8ddJ
4F	4f	4a-	8ccL
.	.	.	8ddJ
=11	=11	=11	=11
4G	8e-L	4b-	8ee-L
.	8dJ	.	8ggJ
4A	4c	4cc	4ff
4B-;	4f;	4b-;	4dd;
4E-	4e-	4b-	4gg
=12	=12	=12	=12
8e-L	4e-	4b-	4gg
8d	.	.	.
8c	4e-	4cc	4gg
8B-J	.	.	.
8A-XL	4f	4cc	4ff
8B-	.	.	.
8c	4f	4a-	4ee-
8A-J	.	.	.
=13	=13	=13	=13
4B-	4B-	4g	4ee-
4BB-	4B-	4f	4dd
4E-;	4B-;	4g;	4ee-;
4F	4f	4a-	4dd
=14	=14	=14	=14
8GL	8B-L	4g	4ee-
8AJ	8cJ	.	.
8B-L	4d	8fL	4dd
8GJ	.	8b-J	.
8E-L	4e-	4g	4cc
8FJ	.	.	.
8GL	4d	4g	4b-
8E-J	.	.	.
=15	=15	=15	=15
4C	8e-L	4g	4b-
.	8dJ	.	.
4F	4c	4f	4a
4BB-;	4d;	4f;	4b-;
4E-	8B-L	4e-	4gg
.	8cJ	.	.
=16	=16	=16	=16
8B-L	4d	8fL	4ff
8BJ	.	16gL	.
.	.	16a-XJJ	.
4c	8e-L	8gL	4ee-
.	8cJ	8aJ	.
4G;	4g;	4b;	4dd;
4E	4c	4cc	4gg
=17	=17	=17	=17
8FL	8fL	4cc	8aa-XL
8GJ	8e-XJ	.	8ggJ
4A-	8dL	8bL	4ff
.	8cJ	8ccJ	.
4BB	4d	4g	4gg
4C	4c	4g	4ee-
=18	=18	=18	=18
4A	4c	8g-L	4ee-
.	.	8fJ	.
4B-X	4B-X	4f	4dd
4E-;	4B-;	4g;	4ee-;
4E-	4d-	4g	4ee-
=19	=19	=19	=19
8A-L	8cL	4a-	4ee-
8B-J	8dnXJ	.	.
4c	4e-	4a-	4ee-
4D	4B-	4a-	4ff
4E-	4B-	4g	4ee-
=20	=20	=20	=20
2AA	2c	2f	2.ee-
2BB-	2B-	2f	.
.	.	.	4dd
=21	=21	=21	=21
2.EE-;	2.B-;	2.g;	2.ee-;
==	==	==	==
*-	*-	*-	*-
!!!hum2abc: -Q ''
!!!title: @{PC#}. @{OTL@@DE}
!!!YOR1: 371 vierstimmige Choralges&auml;nge von Johann Sebastian Bach, 
!!!YOR2: 4th ed. by Alfred D&ouml;rffel (Leipzig: Breitkopf und H&auml;rtel, 
!!!YOR2: c.1875). 178 pp. Plate "V.A.10".  reprint: J.S. Bach, 371 Four-Part 
!!!YOR4: Chorales (New York: Associated Music Publishers, Inc., c.1940).
!!!SMS: B&H, 4th ed, Alfred D&ouml;rffel, c.1875, plate V.A.10
!!!EED:  Craig Stuart Sapp
!!!EEV:  2009/05/22
